src/lib/packages/icons/src/assets/filled/menu-square-alt.svg

<svg xmlns="http://www.w3.org/2000/svg" width="24" height="24" fill="none"><path fill="currentColor" d="M17.625 3H6.375C4.125 3 3 4.125 3 6.375v11.25C3 19.875 4.125 21 6.375 21h11.25C19.875 21 21 19.875 21 17.625V6.375C21 4.125 19.875 3 17.625 3ZM13 15.75H8a.75.75 0 0 1 0-1.5h5a.75.75 0 0 1 0 1.5Zm3-3H8a.75.75 0 0 1 0-1.5h8a.75.75 0 0 1 0 1.5Zm0-3h-5a.75.75 0 0 1 0-1.5h5a.75.75 0 0 1 0 1.5Z"/></svg>

<svg width="24" height="24" viewBox="0 0 24 24" fill="none" xmlns="http://www.w3.org/2000/svg">
<path d="M17.625 3H6.375C4.125 3 3 4.125 3 6.375V17.625C3 19.875 4.125 21 6.375 21H17.625C19.875 21 21 19.875 21 17.625V6.375C21 4.125 19.875 3 17.625 3ZM13 15.75H8C7.586 15.75 7.25 15.414 7.25 15C7.25 14.586 7.586 14.25 8 14.25H13C13.414 14.25 13.75 14.586 13.75 15C13.75 15.414 13.414 15.75 13 15.75ZM16 12.75H8C7.586 12.75 7.25 12.414 7.25 12C7.25 11.586 7.586 11.25 8 11.25H16C16.414 11.25 16.75 11.586 16.75 12C16.75 12.414 16.414 12.75 16 12.75ZM16 9.75H11C10.586 9.75 10.25 9.414 10.25 9C10.25 8.586 10.586 8.25 11 8.25H16C16.414 8.25 16.75 8.586 16.75 9C16.75 9.414 16.414 9.75 16 9.75Z" fill="currentColor"/>
</svg>
